X: 1
T: Smoker's Jig, the
C: Pete Keir
R: jig
Z: John Chambers <jc:trillian.mit.edu>
M: 6/8
L: 1/8
K: D
A/G/ \
| "D"F>GA d2A | "G"G>AB d2^G | "A7"ABc "Bm"def | "Em"ged "A7"cAG \
| "D"F>GA d2A | "G"G>AB d>cB | "A7"c>BA gfe | "D"d3- d2 :|
|: f/g/ \
| "D"a>fd "Bm"d>ef | "Em"g>ed "A7"c>BA | "D"d>dd "Bm"d>dd | "E7"d>cd "A7"e2A/G/ \
| "D"F>GA d2A | "G"G>AB d>cB | "A7"c>BA gfe | "D"d3- d2 :|
